!!!!SEGMENT: pl-wtm--iii-41-976--001_kurpinski-karol-kazimierz--wesele-w-ojcowie-uwertura.krn
!!!cenid: 18xx:4253
!!!COM: Kurpiński, Karol Kazimierz
!!!COM-rismID: pe30018952
!!!CDT: 1785/03/06-1857/09/18
!!!CNT: Polish
!!!GTL: Wesele w Ojcowie
!!!OTL: Uwertura
!!!OMV: 001
!!!PDT:
!!!AGN:
!!!SMS-siglum: PL-Wtm
!!!SMS-shelfmark: III.41.976
!!!SMS-shelfwork: 001-001 G
!!!SMS-variant:
!!!SMS-altvar:
!!!NIFC-rismSourceID: 1001130735
!!!NIFC-rismChildID: 1001130735
!!!NIFC-islandoraID: pl-wtm:23143
!!!URL-pdf-islandora: https://repozytorium.nifc.pl/islandora/object/pl-wtm:23143/datastream/PDF/view
!!!URL-scan: https://polish.musicsources.pl/pl/lokalizacje/galeria/druki-muzyczne/17811/2 @EN{Scan on Polish Music Sources Website} @PL{Skany w portalu Dziedzictwo Muzyki Polskiej w otwartym dostępie}
!!!ONB-nifc: UWAGA: skany 2-3
!!!AIN: 2 piano
!!!key: D
**kern	**kern	**dynam
*part2	*part1	*part1
*staff2	*staff1	*
*I"[Piano]	*I"[Piano]	*
*I'pf	*I'pf	*
*ICklav	*ICklav	*
*Ipiano	*Ipiano	*
*clefF4	*clefG2	*
*k[f#c#]	*k[f#c#]	*
*D:	*D:	*
*M4/4	*M4/4	*
*met(c)	*met(c)	*
=1	=1	=1
!	!LO:TX:a:B:t=Allegro	!
4D^^\	4d^^</	p
8D'\L	8d'/L	.
8D'\J	8d'/J	.
8C#'\L	8c#'/L	.
8E'\	8e'/	.
8AA'\	8A'/	.
8C#'\J	8c#'/J	.
=2	=2	=2
8D'\L	8d'/L	.
8E'\	8e'/	.
8F#'\	8f#'/	.
8D'\J	8d'/J	.
(>4.G^\	(4.g^/	.
8E\)	8e/)	.
=3	=3	=3
4D^^\	4d^^</	.
8D'\L	8d'/L	.
8D'\J	8d'/J	.
8C#'\L	8c#'/L	.
8E'\	8e'/	.
8AA'\	8A'/	.
8C#'\J	8c#'/J	.
!!LO:LB:g=original	!	!
=4	=4	=4
8D#'\L	8d#y'/L	.
8E'\	8e'/	.
8F#'\	8f#'/	.
8G'\J	8g'/J	.
4A\	(4.a^/	.
4r	.	.
.	8f#/)	.
=5	=5	=5
4A\	(8c#/L 8g	.
.	8b/J)	.
4C#\	4A/ 4e	.
4D\	(8A/L 8f#	.
.	8a/J)	.
4F#\	4A/ 4d	.
=6	=6	=6
4A\	(8c#/L 8g	.
.	8b/J)	.
4C#\	4A/ 4e	.
4D\	(8A/L 8f#	.
.	8a/J)	.
4F#\	4A/ 4d	.
=7	=7	=7
*	*^	*
(>4C#\ (>4c#	(<8e/L 8g	4e\	.
.	8b/)	.	.
4D\) 4d)	(<8f#/	4f#\	.
.	8a/J)	.	.
(<4CC#\ (<4C#	(<8e/L	4A\	.
.	8g/)	.	.
4DD\) 4D)	(<8d/	4A\	.
.	8f#/J)	.	.
=8	=8	=8	=8
4GG\ 4G	(<8e/L	4B\	.
.	8g/)	.	.
4AAA/ 4AA	(<8c#/	4G\	.
.	8e/J)	.	.
4DD/ 4D	8d/L	4F#\	.
.	8f#/	.	<
4r	8a/	4r	.
.	8cc#/J	.	[[
*	*v	*v	*
!!LO:LB:g=original	!	!
=9	=9	=9
4DD\ 4D	4f#^^\ 4dd	f
4D\ 4A 4d	8dd'\L	.
.	8dd'\J	.
*	*^	*
2D\ 2A 2e	8cc#'\L	2g\	.
.	8ee'\	.	.
.	8a'\	.	.
.	8cc#'\J	.	.
*	*v	*v	*
=10	=10	=10
4DD\ 4D	8f#'\L 8dd	.
.	8ee'\	.
4D\ 4A 4d	8ff#'\	.
.	8dd'\J	.
2D\ 2A 2e	(4.cc#^\ 4.gg	.
.	8ee\)	.
=11	=11	=11
4DD\ 4D	4f#^^\ 4dd	.
4D\ 4A 4d	8dd'\L	.
.	8dd'\J	.
*	*^	*
2D\ 2A 2e	8cc#'\L	2g\	.
.	8ee'\	.	.
.	8a'\	.	.
.	8cc#'\J	.	.
*	*v	*v	*
=12	=12	=12
4DD\ 4D	8f#'\L 8dd	.
.	8ee'\	.
4D\ 4A 4d	8ff#'\	.
.	8gg'\J	.
*^	*	*
!LO:N:vis=4	!	!	!
2D\ 2A	2d	(4.a^\ 4.ff# 4.aa	.
.	.	8dd\) 8ff#	.
*v	*v	*	*
!!LO:LB:g=original	!	!
=13	=13	=13
*	*^	*
4AA\ 4A	(<8gg/L	4cc#\	.
.	8bb/)	.	.
4CC#\ 4C#	(<8ee/	4a\	.
.	8gg/J)	.	.
4DD\ 4D	(<8ff#/L	4dd\	.
.	8aa/)	.	.
4FF#\ 4F#	(<8dd/	4a\	.
.	8ff#/J)	.	.
=14	=14	=14	=14
4AA\ 4A	(<8gg/L	4cc#\	.
.	8bb/)	.	.
4CC#\ 4C#	(<8ee/	4a\	.
.	8gg/J)	.	.
4DD\ 4D	(<8ff#/L	4dd\	.
.	8aa/)	.	.
4FF#\ 4F#	(<8dd/	4a\	.
.	8ff#/J)	.	.
=15	=15	=15	=15
4AA\ 4A	(<8gg/L	4cc#\	.
.	8bb/)	.	.
4CC#\ 4C#	(<8ee/	4a\	.
.	8gg/J)	.	.
4DD\ 4D	(<8ff#/L	2a\	.
.	8aa/)	.	.
4FF#\ 4F#	(<8ff#/	.	.
.	8dd/J)	.	.
=16	=16	=16	=16
4GG\ 4G	(<8ee/L	4b\	.
.	8gg/)	.	.
4AA\ 4A	(<8ee/	4g\	.
.	8cc#/J)	.	.
4D\ 4A	4.dd/	4.f#\	.
4r	.	.	.
.	8a/	8r	.
*	*v	*v	*
!!LO:PB:g=original	!	!
=17	=17	=17
!	!LO:TX:i:b:t=dolce	!
.	(8qbb/	.
*^	*	*
4r	1D	(8aa\L)	.
.	.	8gg#X\	.
4F#/ 4A 4d	.	8aa\	.
.	.	8gg#\J	.
!LO:N:vis=4	!	!	!
2F#/ 2A 2d	.	4.aa\)	.
.	.	8ff#\	.
=18	=18	=18	=18
4r	1D	(8gg\L	.
.	.	8aa\	.
4G/ 4A 4e	.	8bb\	.
.	.	8ccc#\J	.
2F#/ 2A 2d	.	4.ddd\)	.
.	.	8aa\	.
=19	=19	=19	=19
4r	1D	(8gg\L	.
.	.	8aa\	.
4G/ 4A 4e	.	8bb\	.
.	.	8ccc#\J	.
2F#/ 2A 2d	.	4.ddd\)	.
.	.	8aa\	.
=20	=20	=20	=20
4r	1D	(16gg\LL	<
.	.	16ff#\	.
.	.	16gg\	.
.	.	16aa\JJ)	.
4G/ 4A 4e	.	(16bb\LL	.
.	.	16aa\	.
.	.	16bb\	.
.	.	16ccc#\JJ)	.
2F#/ 2A 2d	.	4.ddd\	[
.	.	8aa\	.
=21	=21	=21	=21
8r	1E	8ee|\	.
8G#X'</L 8B 8d	.	4ddd^\	.
8G#'</ 8B 8d	.	.	.
8G#'</J 8B 8d	.	8ccc#\	.
8G#'</L 8B 8d	.	(8bb\L	.
8G#'</ 8B 8d	.	8aa\	.
8G#'</ 8B 8d	.	8gg#X\	.
8G#'</J 8B 8d	.	8ff#\J)	.
!!LO:LB:g=original	!	!	!
=22	=22	=22	=22
8r	1E	8ee|\	.
8G#X'</L 8B 8d	.	4ddd^\	.
8G#'</ 8B 8d	.	.	.
8G#'</J 8B 8d	.	(8ccc#\	.
8G#'</L 8B 8d	.	8bb\L	.
8G#'</ 8B 8d	.	8aa\	.
8G#'</ 8B 8d	.	8gg#X\	.
8G#'</J 8B 8d	.	8ff#\J)	.
=23	=23	=23	=23
8r	1E	(8.ee\L	.
8G#X'</L 8B 8d	.	.	.
.	.	16ff#\K	.
8G#'</ 8B 8d	.	8.gg#X\	.
8G#'</J 8B 8d	.	.	.
.	.	16ff#\Jk	.
8G#'</L 8B 8d	.	8.ee\L	.
8G#'</ 8B 8d	.	.	.
.	.	16dd\K	.
8G#'</ 8B 8d	.	8.cc#\	.
8G#'</J 8B 8d	.	.	.
.	.	16b\Jk)	.
*v	*v	*	*
=24	=24	=24
8A\ 8c#	8a|\	.
8r	8r	.
!	!LO:TX:i:a:t=ten	!
4r	(2ee\ 2aa 2eee	p
4CC#/ 4C#	.	.
4C#\ 4E 4A	8ccc#\L	.
.	8aa\J)	.
=25	=25	=25
4DD/ 4D	8ddd\L	.
.	8ccc#\	.
4D\ 4F# 4B	8bb\	.
.	8aa\J	.
4EE/ 4E	8gg#X\L	.
.	8ff#\	.
4E\ 4G#X 4d	8ee\	.
.	8dd\J	.
=26	=26	=26
8A|\ 8c#	8cc#|\	.
8r	8r	.
!	!LO:TX:i:a:t=ten	!
4r	(2ee\ 2aa 2eee	.
4CC#/ 4C#	.	.
4C#\ 4E 4A	8ccc#\L	.
.	8aa\J)	.
!!LO:LB:g=original	!	!
=27	=27	=27
4DD\ 4D	8ddd\L	.
.	8ccc#\	.
4D\ 4F# 4B	8bb\	.
.	8aa\J	.
4EE\ 4E	8gg#X\L	.
.	8ff#\	.
4E\ 4G#X 4d	8ee\	.
.	8dd\J	.
=28	=28	=28
4A\ 4c#	8cc#'\	.
.	8r	f
4r	4a^\ 4cc# 4aa	.
4FF#^\ 4F#	4r	.
4r	4a^\ 4cc# 4aa	.
=29	=29	=29
4DD^\ 4D	4r	.
4r	4b^\ 4dd 4aa	.
4EE^\ 4E	4r	.
4r	4b^\ 4dd 4gg#X	.
=30	=30	=30
4AA^\ 4A	4r	.
4r	4a^\ 4cc# 4aa	.
4FF#^\ 4F#	4r	.
4r	4a^\ 4cc# 4aa	.
=31	=31	=31
4DD^\ 4D	4r	.
4r	4b^\ 4dd 4aa	.
4EE^\ 4E	4r	.
4r	4b^\ 4dd 4gg#X	.
=32	=32	=32
*	*^	*
2.AA\ 2.A	(<8aa/L	2.a\ 2.cc#	p
.	8gg#X/	.	.
.	8aa/	.	.
.	8gg#/J	.	.
.	4.aa/)	.	.
4r	.	4r	.
.	8r	.	.
!!LO:LB:g=original	!	!	!
=33	=33	=33	=33
!	!	!	!LO:HP:t=dim.
2.d\ 2.f#	(<8aa/L	2.a\ 2.dd	>
.	8gg#X/	.	.
.	8aa/	.	.
.	8gg#/J	.	.
.	4.aa/)	.	.
4r	.	4r	.
.	8r	.	.
*	*v	*v	*
=34	=34	=34
*^	*	*
4AA\ 4A	4ryy	4a|\ 4cc# 4aa	.
!	!	!LO:TUP:a	!
(<4f#/ 4a	[2.A\	(12ff#\L 12aa	p
.	.	12gg\ 12bb	.
.	.	12ff#\J 12aa	.
!	!	!LO:TUP:a	!
4e/ 4g	.	12ee\L 12gg	.
.	.	12ff#\ 12aa	.
.	.	12ee\J 12gg	.
!	!	!LO:TUP:a	!
4d/) 4f#	.	12dd\L 12ff#	.
.	.	12ee\ 12gg	.
.	.	12dd\J) 12ff#	.
=35	=35	=35	=35
4e/	4A\]	4cc#|\ 4ee	.
*	*	*Xtuplet	*
(<4f#/ 4a	[2.A\	(12ff#\L 12aa	.
.	.	12gg\ 12bb	.
.	.	12ff#\J 12aa	.
4e/ 4g	.	12ee\L 12gg	.
.	.	12ff#\ 12aa	.
.	.	12ee\J 12gg	.
4d/) 4f#	.	12dd\L 12ff#	.
.	.	12ee\ 12gg	.
.	.	12dd\J) 12ff#	.
=36	=36	=36	=36
8A\] 8e	8ryy	(8.cc#\L 8.ee	.
8r	8ryy	.	.
.	.	16dd\K 16ff#	.
4r	4ryy	8.ee\ 8.gg	.
.	.	16dd\Jk 16ff#	.
2A\ 2c# 2g	2ryy	8.cc#\L 8.ee	.
.	.	16b\K 16dd	.
.	.	8.a\ 8.cc#	.
.	.	16g\Jk) 16b	.
*v	*v	*	*
=37	=37	=37
2AA:\ 2E: 2G: 2c#:	(8.e\L 8.g 8.a	.
.	16b\K	.
!	!LO:TX:i:b:t=rit.	!
.	8.cc#\	>
.	16b\Jk)	.
2r	(8a/L	.
.	8g/	.
.	8f#/	.
.	8e/J)	]]
!!LO:LB:g=original	!	!
=38	=38	=38
!	!LO:TX:t=P:problem: dopisane niebieską kredką	!
!	!LO:TX:a:t=N|o 1.:color=blue:note=podkreślone na niebiesko	!
4D^^\	4d^^</	.
8D'\L	8d'/L	p
8D'\J	8d'/J	.
8C#'\L	8c#'/L	.
8E'\	8e'/	.
8AA'\	8A'/	.
8C#'\J	8c#'/J	.
=39	=39	=39
8D'\L	8d'/L	.
8E'\	8e'/	.
8F#'\	8f#'/	.
8D'\J	8d'/J	.
(4.G^\	(4.g^/	.
8E\)	8e/)	.
=40	=40	=40
4D^^\	4d^^</	.
8D'\L	8d'/L	.
8D'\J	8d'/J	.
8C#'\L	8c#'/L	.
8E'\	8e'/	.
8AA'\	8A'/	.
8C#'\J	8c#'/J	.
=41	=41	=41
8D'\L	8d'/L	.
8E'\	8e'/	.
8F#'\	8f#'/	.
8G'\J	8g'/J	.
4A\	(4.a^/	.
4r	.	.
.	8f#/)	.
=42	=42	=42
*	*^	*
4A\	(<8g/L	4c#\	.
.	8b/)	.	.
4C#\	(<8e/	4A\	.
.	8g/J)	.	.
4D\	(<8f#/L	4A\	.
.	8a/)	.	.
4F#\	(<8d/	4A\	.
.	8f#/J)	.	.
!!LO:LB:g=original	!	!	!
=43	=43	=43	=43
4A\	(<8g/L	4c#\	.
.	8b/)	.	.
4C#\	(<8e/	4A\	.
.	8g/J)	.	.
4D\	(<8f#/L	4A\	.
.	8a/)	.	.
4F#\	(<8d/	4A\	.
.	8f#/J)	.	.
=44	=44	=44	=44
4C#\ 4c#	(<8g/L	4e\	.
.	8b/)	.	.
4D\ 4d	(<8f#/	4f#\	.
.	8a/J)	.	.
4CC#\ 4C#	(<8e/L	4A\	.
.	8g/)	.	.
4DD\ 4D	(<8d/	4A\	.
.	8f#/J)	.	.
=45	=45	=45	=45
4GG\ 4G	(<8e/L	4B\	.
.	8g/)	.	.
4AAA\ 4AA	(<8c#/	4G\	.
.	8e/J)	.	.
4DD\ 4D	(<8d/L	4F#\	<
.	8f#/	.	.
4r	8a/	4r	.
.	8cc#/J)	.	.
=46	=46	=46	=46
!	!	!	!LO:DY:b
4DD\ 4D	4f#^^\ 4dd	4ryy	[ f
4D\ 4A 4d	8dd'\L	4ryy	.
.	8dd'\J	.	.
*^	*	*	*
2D\ 2A	4e	8cc#'\L	2g\	.
.	.	8ee'\	.	.
.	4ryy	8a'\	.	.
.	.	8cc#'\J	.	.
*v	*v	*	*	*
*	*v	*v	*
=47	=47	=47
4DD\ 4D	8dd'\L	.
.	8ee'\	.
4D\ 4A 4d	8ff#'\	.
.	8dd'\J	.
2D\ 2A 2e	(4.cc#^\ 4.gg	.
.	8ee\)	.
!!LO:PB:g=original	!	!
=48	=48	=48
*	*^	*
4DD/ 4D	4f#^^|\ 4dd	4ryy	.
4D\ 4A 4d	8dd'\L	4ryy	.
.	8dd'\J	.	.
2D\ 2A 2e	8cc#'</L	2g\	.
.	8ee'</	.	.
.	8a'</	.	.
.	8cc#'</J	.	.
*	*v	*v	*
=49	=49	=49
4DD/ 4D	8f#'\L 8dd	.
.	8ee'\	.
4D\ 4A 4d	8ff#'\	.
.	8gg'\J	.
2D\ 2A 2d	4.a\ 4.ff# 4.aa	.
.	8dd\ 8ff#	.
=50	=50	=50
4A\	(8cc#\L 8gg	.
.	8bb\J)	.
4C#\	4a\ 4ee	.
4D\	(8dd\L 8ff#	.
.	8aa\J)	.
4F#\	4a\ 4dd	.
=51	=51	=51
4A\	(8cc#\L 8gg	.
.	8bb\J)	.
4C#\	4a\ 4ee	.
4D\	(8dd\L 8ff#	.
.	8aa\J)	.
4F#\	4a\ 4dd	.
=52	=52	=52
*	*^	*
((4C#\ 4c#	(8ee\L	4gg/	.
.	8bb\)	.	.
4D\)) 4d	(8dd\	4ff#/	.
.	8aa\J)	.	.
((4CC#/ 4C#	(8a\L	4ee/	.
.	8gg\)	.	.
4DD/)) 4D	(8a\	4dd/	.
.	8ff#\J)	.	.
*	*v	*v	*
!!LO:LB:g=original	!	!
=53	=53	=53
4AA/	(8g\L 8ee	.
.	8f#\ 8dd	.
4G\ 4A 4c#	8g\ 8ee	.
.	8a\J) 8ff#	.
4F#\ 4A 4d	8f#'\L 8dd	.
.	8dd'\ 8ddd	.
4r	8dd'\ 8ddd	.
.	8dd'\J 8ddd	.
=54	=54	=54
4D\	(8.cccn\L	f
.	16bb\K	.
4F#\ 4cn 4d	8.aa\	.
.	16gg\Jk	.
4F#\ 4c 4d	8.ff#\L	.
.	16ee\	.
4F#\ 4c 4d	8.dd\	.
.	16ccn\Jk	.
=55	=55	=55
4D\	8.b\L	.
.	16ccn\K	.
4G\ 4B 4d	8.dd\	.
.	16ee\Jk	.
4G\ 4B 4d	8.ff#\L	.
.	16gg\K	.
4G\ 4B 4d	8.aa\	.
.	16bb\Jk)	.
=56	=56	=56
4D\	(8.cccn\L	.
.	16bb\K	.
4F#\ 4cn 4d	8.aa\	.
.	16gg\Jk	.
4F#\ 4c 4d	8.ff#\L	.
.	16ee\K	.
4F#\ 4c 4d	8.dd\	.
.	16ccn\Jk	.
=57	=57	=57
4D\	8.b\L	.
.	16ccn\	.
4G\ 4B 4d	8.dd\	.
.	16ee\Jk	.
4G\ 4B 4d	8.ff#\L	.
.	16gg\K	.
4G\ 4B 4d	8.aa\	.
.	16bb\Jk)	.
!!LO:LB:g=original	!	!
=58	=58	=58
*	*tuplet	*
!	!LO:TUP:a:problem:klamra łukowa	!LO:HP:t=cres.
4E\	12ddd\L	<
.	12ccc#\	.
.	12bb\J	.
*	*Xtuplet	*
!	!LO:TUP:a:problem:klamra łukowa	!
4G#X\ 4d 4e	12bb\L	.
.	12bb\	.
.	12bb\J	.
4G#\ 4d 4e	12bb\L	.
.	12aa\	.
.	12gg#X\J	.
4G#\ 4d 4e	12gg#\L	.
.	12gg#\	.
.	12gg#\J	.
=59	=59	=59
4E\	12gg#X\L	.
.	12ff#\	.
.	12ee\J	.
4G#X\ 4d 4e	12ee\L	.
.	12ee\	.
.	12ee\J	.
4G#\ 4d 4e	12ee\L	.
.	12dd\	.
.	12cc#\J	.
4G#\ 4d 4e	12dd\L	.
.	12cc#\	.
.	12b\J	.
=60	=60	=60
4A\ 4c# 4e	4a\	.
4AA\ 4A	4a\ 4cc# 4ee 4aa	f
4AA\ 4A	4a\ 4cc# 4ee 4aa	.
4r	4r	.
=61	=61	=61
8F#\ 8A 8d	8a\	.
8r	8r	p
!	!LO:TX:i:a:t=ten	!
4r	(2a\ 2dd 2aa	.
4FF#\ 4F#	.	.
4F#\ 4A 4d	8ff#\L	.
.	8dd\J)	.
=62	=62	=62
4GG\ 4G	8gg\L	.
.	8ff#\	.
4G\ 4B 4e	8ee\	.
.	8dd\J	.
4AA\ 4A	8cc#\L	.
.	8b\	.
4G\ 4A 4c#	8a\	.
.	8g\J	.
!!LO:LB:g=original	!	!
=63	=63	=63
8F#\ 8A 8d	8f#/	.
8r	8r	.
!	!LO:TX:i:a:t=ten	!
4r	(2a\ 2dd 2aa	.
4FF#\ 4F#	.	.
4F#\ 4A 4d	8ff#\L	.
.	8dd\J)	.
=64	=64	=64
4GG\ 4G	8gg\L	.
.	8ff#\	.
4G\ 4B 4e	8ee\	.
.	8dd\J	.
4AA\ 4A	8cc#\L	.
.	8b\	.
4G\ 4A 4c#	8a\	.
.	8g\J	.
=65	=65	=65
4F#\ 4A 4d	8f#/	.
.	8r	.
4r	4dd^\ 4ff# 4ddd	f
4BB^\ 4B	4r	.
4r	4dd^\ 4ff# 4ddd	.
=66	=66	=66
4GG^\ 4G	4r	.
4r	4ee^\ 4gg 4ddd	.
4AA^\ 4A	4r	.
4r	4ee^\ 4gg 4ccc#	.
=67	=67	=67
4D^\ 4d	4r	.
4r	4dd^\ 4ff# 4ddd	.
4BB^\ 4B	4r	.
4r	4dd^\ 4ff# 4ddd	.
!!LO:LB:g=original	!	!
=68	=68	=68
4GG^\ 4G	4r	.
4r	4ee^\ 4gg 4ddd	.
4AA^\ 4A	4r	.
4r	4ee^\ 4gg 4ccc#	.
=69	=69	=69
4DD^/ 4D	4dd^\ 4ff# 4aa 4ddd	.
4r	4r	p
4D\ 4F# 4A 4d	(8dd\L	.
!	!LO:TX:i:b:t=cantando	!
.	8ee\	.
4D\ 4F# 4A 4d	8ff#\	.
.	8gg\J)	.
=70	=70	=70
4D\ 4F# 4A 4d	(4.aa\	.
4D\ 4F# 4A 4d	.	.
.	8gg#X\)	.
.	8qbb/	.
4D\ 4F# 4A 4d	(8aa\L	.
.	8gg#\	.
4D\ 4F# 4A 4d	8aa\	.
.	8gg#\J)	.
=71	=71	=71
4D\ 4F# 4A 4d	(4.aa\	.
4D\ 4F# 4A 4d	.	.
.	8ff#\)	.
.	8qbb/	.
4D\ 4F# 4A 4d	(8aa\L	.
.	8gg#X\	.
4D\ 4F# 4A 4d	8aa\	.
.	8gg#\J)	.
=72	=72	=72
4D\ 4F# 4A 4d	(4.aa\	.
4D\ 4F# 4A 4d	.	.
.	8ff#\)	.
4D\ 4F# 4A 4d	(8aa\L	.
.	8bb\	.
4D\ 4G 4A 4c#	8ff#\	.
.	8gg\J)	.
!!LO:LB:g=original	!	!
=73	=73	=73
4D\ 4F# 4A 4d	(8aa\L	.
.	8bb\	.
4D\ 4G 4A 4c#	8ff#\	.
.	8gg\J	.
4D\ 4F# 4A 4d	8aa\L	.
.	8ff#\	.
4D\ 4G 4A 4c#	8gg\	.
.	8ee\J)	.
=74	=74	=74
4D\ 4F# 4A 4d	4dd\	.
4r	4r	.
4AA\ 4A	4ee\ 4gg 4aa 4ccc#	f
4r	4r	.
=75	=75	=75
2DD/ 2D	2dd\ 2ff# 2aa 2ddd	.
4r	4r	.
8.r	8.r	.
16DD/ 16D	16d/ 16f# 16a 16dd	ff
=76	=76	=76
4DD/ 4D	4d/ 4f# 4a 4dd	.
4DD/ 4D	4d/ 4f# 4a 4dd	.
4DD/ 4D	4d/ 4f# 4a 4dd	.
4DD/ 4D	4d/ 4f# 4a 4dd	.
=77	=77	=77
!LO:TX:b:t=do tąd.\nX:color=blue:note=podkreślone na niebiesko	!	!
1DD; 1D	1d; 1f# 1a 1dd	.
==	==	==
*-	*-	*-
!!!system-decoration: {(s1,s2)}
!!!RDF**kern: > = above
!!!RDF**kern: < = below
!!!RDF**kern: | = vertical stroke
!!!ENC: Berenika Jozajtis
!!!END: 2022-11-25
!!!ENC: Jan Barakat
!!!END: 2022-12-07
!!!YEC: Copyright 2022 Narodowy Instytut Fryderyka Chopina (https://polishscores.org)
!!!YEM: License CC-BY-4.0 (https://creativecommons.org/licenses/by/4.0)
